client/public/assets/icons/standard/drafts.svg

<?xml version="1.0"?><svg xmlns="http://www.w3.org/2000/svg" width="100" height="100" viewBox="0 0 100 100"><path fill="#fff" d="m73 20h-32c-3.3 0-6 2.7-6 6v1c0 0.6 0.4 1 1 1h29c3.3 0 6 2.7 6 6v31c0 0.6 0.4 1 1 1h1c3.3 0 6-2.7 6-6v-34c0-3.3-2.7-6-6-6z m-14 14h-32c-3.3 0-6 2.7-6 6v34c0 3.3 2.7 6 6 6h32c3.3 0 6-2.7 6-6v-34c0-3.3-2.7-6-6-6z m-30 10c0-1.1 0.9-2 2-2h20c1.1 0 2 0.9 2 2v2c0 1.1-0.9 2-2 2h-20c-1.1 0-2-0.9-2-2v-2z m24 26c0 1.1-0.9 2-2 2h-20c-1.1 0-2-0.9-2-2v-2c0-1.1 0.9-2 2-2h20c1.1 0 2 0.9 2 2v2z m4-12c0 1.1-0.9 2-2 2h-24c-1.1 0-2-0.9-2-2v-2c0-1.1 0.9-2 2-2h24c1.1 0 2 0.9 2 2v2z"></path></svg>

<?xml version="1.0" encoding="utf-8"?>
<!-- Generator: Adobe Illustrator 17.1.0, SVG Export Plug-In . SVG Version: 6.00 Build 0)  -->
<!DOCTYPE svg PUBLIC "-//W3C//DTD SVG 1.1//EN" "http://www.w3.org/Graphics/SVG/1.1/DTD/svg11.dtd">
<svg version="1.1" id="Layer_1" xmlns="http://www.w3.org/2000/svg" xmlns:xlink="http://www.w3.org/1999/xlink" x="0px" y="0px" width="100" height="100"
	 viewBox="0 0 100 100" style="enable-background:new 0 0 100 100;" xml:space="preserve">

<g>
	<g>
		<path fill="#FFFFFF" d="M73,20H41c-3.3,0-6,2.7-6,6v1c0,0.6,0.4,1,1,1h29c3.3,0,6,2.7,6,6v31c0,0.6,0.4,1,1,1h1c3.3,0,6-2.7,6-6V26
			C79,22.7,76.3,20,73,20z"/>
	</g>
	<g>
		<path fill="#FFFFFF" d="M59,34H27c-3.3,0-6,2.7-6,6v34c0,3.3,2.7,6,6,6h32c3.3,0,6-2.7,6-6V40C65,36.7,62.3,34,59,34z M29,44
			c0-1.1,0.9-2,2-2h20c1.1,0,2,0.9,2,2v2c0,1.1-0.9,2-2,2H31c-1.1,0-2-0.9-2-2V44z M53,70c0,1.1-0.9,2-2,2H31c-1.1,0-2-0.9-2-2v-2
			c0-1.1,0.9-2,2-2h20c1.1,0,2,0.9,2,2V70z M57,58c0,1.1-0.9,2-2,2H31c-1.1,0-2-0.9-2-2v-2c0-1.1,0.9-2,2-2h24c1.1,0,2,0.9,2,2V58z"
			/>
	</g>
</g>
</svg>
